X:10
T:Blackened Reel
M:C|
L:1/8
C: Paul Gitlitz 2001
R:Swing
B:Hunters And Gatherers
K:A
"A6"=c^cea- aa2e|=c^ceA- AA2A|=c^cea- ae2f|ec=cB-"E7"B3A|!
"E7"GBeg- gg2e|gecB- BB2B|cBgf- fe2f|ecB2 "A6"A4:|! 
|"D6"fedf- ff2e|f=g^ga- aa2f|"A6"e2ef ed3|c3c- cBA2|!
"B7"^dcBf- fed2|agfb- baf2|"E7"e2e2f2=g2|^g8|!
"D6"fedf- fed2|f=g^ga- aa2f|"A6"e2ef ed3|c3c- cBA2|! 
"B7"^dcBf- ff2e|fe^da- aagf|"E7"^g2g2a2^a2|b8|]
